svgs/light/arrow-up-big-small.svg

<svg xmlns="http://www.w3.org/2000/svg" viewBox="0 0 512 512"><!-- Font Awesome Pro 6.0.0-alpha2 by @fontawesome - https://fontawesome.com License - https://fontawesome.com/license (Commercial License) --><path d="M399.998 320H336C309.6 320 288 341.602 288 368V432C288 458.398 309.6 480 336 480H399.998C426.398 480 447.998 458.398 447.998 432V368C447.998 341.602 426.398 320 399.998 320ZM415.998 432C415.998 440.672 408.672 448 399.998 448H336C327.328 448 320 440.672 320 432V368C320 359.328 327.328 352 336 352H399.998C408.672 352 415.998 359.328 415.998 368V432ZM464 32H336C309.49 32 288 53.492 288 80V208C288 234.508 309.49 256 336 256H464C490.51 256 512 234.508 512 208V80C512 53.492 490.51 32 464 32ZM480 208C480 216.824 472.822 224 464 224H336C327.178 224 320 216.824 320 208V80C320 71.176 327.178 64 336 64H464C472.822 64 480 71.176 480 80V208ZM139.312 36.688C133.062 30.438 122.937 30.438 116.688 36.688L20.688 132.688C14.438 138.938 14.438 149.063 20.688 155.312S37.063 161.562 43.312 155.312L112 86.625V464C112 472.844 119.156 480 128 480S144 472.844 144 464V86.625L212.688 155.312C215.812 158.438 219.906 160 224 160S232.188 158.438 235.312 155.312C241.562 149.062 241.562 138.937 235.312 132.688L139.312 36.688Z"/></svg>

<svg xmlns="http://www.w3.org/2000/svg" viewBox="0 0 512 512"><!--! Font Awesome Pro 6.3.0 by @fontawesome - https://fontawesome.com License - https://fontawesome.com/license (Commercial License) Copyright 2023 Fonticons, Inc. --><path d="M399.1 320H336c-26.4 0-48 21.6-48 48v64c0 26.4 21.6 48 48 48h63.1c26.4 0 48-21.6 48-48v-64C447.1 341.6 426.4 320 399.1 320zM415.1 432c0 8.672-7.326 16-16 16H336c-8.672 0-16-7.328-16-16v-64c0-8.672 7.328-16 16-16h63.1c8.674 0 16 7.328 16 16V432zM464 32h-128C309.5 32 288 53.49 288 80v128C288 234.5 309.5 256 336 256h128C490.5 256 512 234.5 512 208v-128C512 53.49 490.5 32 464 32zM480 208C480 216.8 472.8 224 464 224h-128C327.2 224 320 216.8 320 208v-128C320 71.18 327.2 64 336 64h128C472.8 64 480 71.18 480 80V208zM139.3 36.69c-6.25-6.25-16.38-6.25-22.62 0l-96 96c-6.25 6.25-6.25 16.38 0 22.62s16.38 6.25 22.62 0L112 86.63V464C112 472.8 119.2 480 128 480s16-7.156 16-16V86.63l68.69 68.69C215.8 158.4 219.9 160 224 160s8.188-1.562 11.31-4.688c6.25-6.25 6.25-16.38 0-22.62L139.3 36.69z"/></svg>
